icons/gitlab.svg

<svg width="16" height="16" viewBox="0 0 16 16" fill="none" xmlns="http://www.w3.org/2000/svg">
<g clip-path="url(#clip0_1844_150)">
<path d="M13.7982 6.79201L13.7814 6.74904L12.15 2.4924C12.1169 2.40892 12.0582 2.33804 11.9824 2.28989C11.906 2.24168 11.8166 2.21837 11.7264 2.22317C11.6362 2.22796 11.5497 2.26064 11.4789 2.31668C11.4087 2.37294 11.3581 2.44992 11.3343 2.53665L10.2314 5.91215H5.76909L4.66616 2.53665C4.64234 2.44992 4.59175 2.37294 4.52159 2.31668C4.45107 2.26026 4.36464 2.22734 4.27446 2.22254C4.18427 2.21773 4.09484 2.24128 4.01872 2.28989C3.94259 2.33785 3.88367 2.40877 3.85047 2.4924L2.21724 6.75462L2.20042 6.797C1.96597 7.41087 1.93715 8.08426 2.11829 8.71591C2.29944 9.34756 2.68076 9.90335 3.20491 10.2996L3.21114 10.304L3.22547 10.3152L5.71365 12.1778L6.9437 13.1094L7.69149 13.6758C7.77931 13.7421 7.88641 13.7781 7.99651 13.7781C8.10657 13.7781 8.21367 13.7421 8.30154 13.6758L9.04929 13.1094L10.28 12.1778L12.7825 10.304L12.7893 10.299C13.3152 9.90309 13.6981 9.34685 13.8801 8.71419C14.0621 8.08156 14.0333 7.4069 13.7982 6.79201Z" fill="#E24329"/>
<path d="M13.7983 6.79201L13.7815 6.74904C12.9858 6.91299 12.2361 7.25019 11.5855 7.73668L8.00311 10.4517C9.22445 11.3752 10.2875 12.1778 10.2875 12.1778L12.79 10.304L12.7969 10.299C13.3215 9.90211 13.7029 9.34539 13.8835 8.71284C14.0641 8.08025 14.0342 7.40611 13.7983 6.79201Z" fill="#FC6D26"/>
<path d="M5.71557 12.1778L6.94377 13.1094L7.69152 13.6758C7.77939 13.7422 7.88645 13.7781 7.99655 13.7781C8.10665 13.7781 8.21375 13.7422 8.30157 13.6758L9.04933 13.1094L10.28 12.1778C10.28 12.1778 9.21695 11.3752 7.99561 10.4517L5.71557 12.1778Z" fill="#FCA326"/>
<path d="M4.41317 7.73919C3.76279 7.25251 3.01296 6.9155 2.21725 6.75215L2.20043 6.79453C1.96537 7.4087 1.93624 8.08261 2.1174 8.71479C2.29857 9.34696 2.68023 9.90316 3.20492 10.2997L3.21115 10.304L3.22548 10.3152L5.71365 12.1778L8.00304 10.4517L4.41317 7.73919Z" fill="#FC6D26"/>
</g>
<defs>
<clipPath id="clip0_1844_150">
<rect width="12" height="12" fill="white" transform="translate(2 2)"/>
</clipPath>
</defs>
</svg>

<svg xmlns="http://www.w3.org/2000/svg" width="16" height="16" fill="none" viewBox="0 0 16 16"><g clip-path="url(#clip0_1844_150)"><path fill="#E24329" d="m13.798 6.792-.017-.043-1.631-4.257a.43.43 0 0 0-.424-.269.43.43 0 0 0-.392.313l-1.103 3.376H5.77L4.666 2.537a.43.43 0 0 0-.392-.314.43.43 0 0 0-.424.27L2.217 6.754l-.017.042A3.034 3.034 0 0 0 3.205 10.3l.006.004.014.011 2.489 1.863 1.23.931.747.567a.506.506 0 0 0 .61 0l.748-.567 1.231-.931 2.503-1.874.006-.005a3.03 3.03 0 0 0 1.01-3.507"/><path fill="#FC6D26" d="m13.798 6.792-.017-.043a5.5 5.5 0 0 0-2.196.988l-3.582 2.715 2.284 1.726 2.503-1.874.007-.005a3.03 3.03 0 0 0 1.001-3.507"/><path fill="#FCA326" d="m5.716 12.178 1.228.931.748.567a.506.506 0 0 0 .61 0l.747-.567 1.231-.931-2.284-1.726z"/><path fill="#FC6D26" d="M4.413 7.74a5.5 5.5 0 0 0-2.196-.988l-.017.043A3.034 3.034 0 0 0 3.205 10.3l.006.004.014.011 2.489 1.863 2.289-1.726z"/></g><defs><clipPath id="clip0_1844_150"><path fill="#fff" d="M2 2h12v12H2z"/></clipPath></defs></svg>
